DE/EBO/Lf6_80_Tafel_nu.svg

<?xml version="1.0" encoding="UTF-8" standalone="no"?>
<!-- Created with Inkscape (http://www.inkscape.org/) -->

<svg
   xmlns:sketch="http://www.bohemiancoding.com/sketch/ns"
   xmlns:dc="http://purl.org/dc/elements/1.1/"
   xmlns:cc="http://creativecommons.org/ns#"
   xmlns:rdf="http://www.w3.org/1999/02/22-rdf-syntax-ns#"
   xmlns:svg="http://www.w3.org/2000/svg"
   xmlns="http://www.w3.org/2000/svg"
   xmlns:sodipodi="http://sodipodi.sourceforge.net/DTD/sodipodi-0.dtd"
   xmlns:inkscape="http://www.inkscape.org/namespaces/inkscape"
   width="449.35999"
   height="384.07001"
   id="svg2"
   version="1.1"
   inkscape:version="0.48.5 r10040"
   sodipodi:docname="Lf6_50_Tafel_nu.svg">
  <defs
     id="defs4" />
  <sodipodi:namedview
     id="base"
     pagecolor="#ffffff"
     bordercolor="#666666"
     borderopacity="1.0"
     inkscape:pageopacity="0.0"
     inkscape:pageshadow="2"
     inkscape:zoom="1.4"
     inkscape:cx="327.12612"
     inkscape:cy="249.63495"
     inkscape:document-units="px"
     inkscape:current-layer="layer6"
     showgrid="false"
     inkscape:window-width="1920"
     inkscape:window-height="1028"
     inkscape:window-x="1366"
     inkscape:window-y="30"
     inkscape:window-maximized="1" />
  <metadata
     id="metadata7">
    <rdf:RDF>
      <cc:Work
         rdf:about="">
        <dc:format>image/svg+xml</dc:format>
        <dc:type
           rdf:resource="http://purl.org/dc/dcmitype/StillImage" />
        <dc:title></dc:title>
      </cc:Work>
    </rdf:RDF>
  </metadata>
  <g
     inkscape:label="Ebene 1"
     inkscape:groupmode="layer"
     id="layer1"
     transform="translate(0,-668.2922)"
     style="display:inline" />
  <g
     inkscape:groupmode="layer"
     id="layer4"
     inkscape:label="orange-weiss"
     transform="translate(0,209.39001)">
    <path
       style="color:#000000;fill:#d97100;fill-opacity:1;stroke:#ffffff;stroke-width:15;stroke-linecap:round;stroke-linejoin:round;stroke-miterlimit:4;stroke-opacity:1;stroke-dasharray:none;stroke-dashoffset:0;marker:none;visibility:visible;display:inline;overflow:visible;enable-background:accumulate"
       d="m 432.3545,-196.12211 c -142.257,0.2431 -281.4368,-0.8006 -415.1475,-1.1875 66.0146,116.334203 139.1155,237.711803 205.1301,354.046 68.2981,-116.165297 141.8641,-236.459897 210.1622,-352.6252 -2.1381,3.7034 -7.2936,-0.2333 -0.1448,-0.2333 z"
       id="path3047"
       inkscape:connector-curvature="0"
       sodipodi:nodetypes="ccccc" />
  </g>
  <g
     inkscape:groupmode="layer"
     id="layer5"
     inkscape:label="schwarz"
     transform="translate(0,209.39001)">
    <path
       sodipodi:nodetypes="ccccc"
       inkscape:connector-curvature="0"
       id="path4624"
       d="m 441.5343,-203.03571 c -170.4274,0 -300.3326,-0.5962 -437.0343,-1.8584 66.0146,116.334203 151.3149,258.739903 217.3295,375.0741 68.2981,-116.165297 223.0279,-373.1969 223.0279,-373.1969 z"
       style="color:#000000;fill:none;stroke:#000000;stroke-width:9;stroke-linecap:round;stroke-linejoin:round;stroke-miterlimit:4;stroke-opacity:1;stroke-dasharray:none;stroke-dashoffset:0;marker:none;visibility:visible;display:inline;overflow:visible;enable-background:accumulate" />
  </g>
  <g
     inkscape:groupmode="layer"
     id="layer6"
     inkscape:label="Ziffer"
     transform="translate(0,209.39001)">
    <g
       id="layer6-5"
       transform="translate(190.5,-167.92999)"
       sketch:type="MSShapeGroup"
       style="fill:#000000;stroke:none">
      <path
         d="m 39.10534,-0.17227 c -22.25434,0 -38.45398,14.95552 -38.8125,38.8125 -0.0103,10e-4 -0.0312,0 -0.0312,0 l 0,20.375 c 0,9.001759 3.92532,19.627029 11.40625,26.906249 -7.48098,7.34172 -11.4063,17.529491 -11.4063,26.531251 l 0.0312,31.21875 c 0.0238,23.85325 16.56164,38.8125 38.8125,38.8125 20.7827,0 38.0625,-14.62446 38.0625,-38.8125 l 0,-31.21875 c 0,-9.00176 -4.78967,-20.674671 -11.41813,-26.548561 8.04267,-7.81843 11.41813,-18.10501 11.41813,-27.106769 l 0,-20.15717 c 0,-24.18802 -17.2798,-38.8125 -38.0625,-38.8125 l 5e-5,0 z m -0.78125,23 c 9.29281,-0.125 16.53125,5.76083 16.53125,15.3125 l 0,20.25 c 0,8.138929 -5.99177,16.278979 -16.125,16.281249 -10.14907,0.002 -16.18109,-8.13475 -16.15625,-16.281249 l 0.0625,-20.5 c 0.0289,-9.47307 8.24074,-14.96233 15.6875,-15.0625 l 0,0 z m 0.40625,74.218749 c 9.38311,0 16.125,7.586111 16.125,16.343751 l 0,30.78125 c 0,9.55167 -7.23844,15.40625 -16.53125,15.28125 -7.44676,-0.10017 -15.66842,-5.55816 -15.6875,-15.03125 l -0.0625,-31.03125 c -0.0177,-8.80978 6.97819,-16.343751 16.15625,-16.343751 l 0,0 z"
         id="path3830-7"
         inkscape:connector-curvature="0" />
    </g>
  </g>
</svg>

<?xml version="1.0" encoding="UTF-8" standalone="no"?>
<svg width="457px" height="390px" viewBox="0 0 457 390" version="1.1" xmlns="http://www.w3.org/2000/svg" xmlns:xlink="http://www.w3.org/1999/xlink" xmlns:sketch="http://www.bohemiancoding.com/sketch/ns">
    <title>Slice 1</title>
    <description>Created with Sketch (http://www.bohemiancoding.com/sketch)</description>
    <defs></defs>
    <g id="Page-1" stroke="none" stroke-width="1" fill="none" fill-rule="evenodd" sketch:type="MSPage">
        <g id="Lf6_180_Tafel_nu" sketch:type="MSLayerGroup" transform="translate(9.000000, 5.000000)">
            <g id="layer5" transform="translate(0.000000, 0.390010)" sketch:type="MSShapeGroup">
                <path d="M-0.5,-0.32 L219.5,375.17999 L439.5,-0.32 L-0.5,-0.32 Z" id="path4624" stroke="#000000" stroke-width="9" fill="#FFFFFF"></path>
                <path d="M32.201488,18.73635 L219.5,338.42084 L406.79851,18.73635 L32.201488,18.73635 Z" id="path3780" fill="#D97100"></path>
            </g>
            <g id="layer6" transform="translate(181.500000, 42.390010)" fill="#000000" sketch:type="MSShapeGroup">
                <path d="M39.10534,-0.17227 C16.851,-0.17227 0.65136,14.78325 0.29284,38.64023 C0.28254,38.64123 0.26164,38.64023 0.26164,38.64023 L0.26164,59.01523 C0.26164,68.016989 4.18696,78.642259 11.66789,85.921479 C4.18691,93.263199 0.26159,103.450969 0.26159,112.452729 L0.29279,143.671479 C0.31659,167.524729 16.85443,182.483979 39.10529,182.483979 C59.88799,182.483979 77.16779,167.859519 77.16779,143.671479 L77.16779,112.452729 C77.16779,103.450969 72.37812,91.778059 65.74966,85.904169 C73.79233,78.085739 77.16779,67.799159 77.16779,58.7974 L77.16779,38.64023 C77.16779,14.45221 59.88799,-0.17227 39.10529,-0.17227 L39.10534,-0.17227 Z M38.32409,22.82773 C47.6169,22.70273 54.85534,28.58856 54.85534,38.14023 L54.85534,58.39023 C54.85534,66.529159 48.86357,74.669209 38.73034,74.671479 C28.58127,74.673479 22.54925,66.536729 22.57409,58.39023 L22.63659,37.89023 C22.66549,28.41716 30.87733,22.9279 38.32409,22.82773 L38.32409,22.82773 Z M38.73034,97.046479 C48.11345,97.046479 54.85534,104.632589 54.85534,113.390229 L54.85534,144.171479 C54.85534,153.723149 47.6169,159.577729 38.32409,159.452729 C30.87733,159.352559 22.65567,153.894569 22.63659,144.421479 L22.57409,113.390229 C22.55639,104.580449 29.55228,97.046479 38.73034,97.046479 L38.73034,97.046479 Z" id="path3830-7"></path>
            </g>
        </g>
    </g>
</svg>
